!!!SOCIAL_FUNCTION:	parade songs
!!!PDT:	1922
!!!OTL: No_93_Parade_Song_(k).krn
!!!REG: Southwest
!!!LANG: Non-Tone
!!!LING_GROUP: Uto-Aztecan
**kern
*staff1
=1-
*clefF4
*k[b-e-a-]
*M2/4
4e-\
4e-\
=2
8e-\L
8e-\J
16B-\LL
16B-\J
8B-\J
=3!|:
8e-\L
8e-\J
16B-\LL
16B-\J
8B-\J
=4
8B-\L
8B-\J
16G\LL
16G\
16G\
16F\JJ
=5||
*M3/4
8G\L
8G\J
16F\LL
16E-\J
8E-\J
8E-\L
8E-\J
=6||
*M2/4
16B-\LL
16G\J
8B-\J
16G\LL
16F\J
8G\J
=7
16B-\LL
16G\J
8B-\J
16G\LL
16F\
16G\
16F\JJ
=8
8G\L
8G\J
16F\LL
16E-\J
8E-\J
=9
4E-\
4BB-/
=10
16F\LL
16E-\J
8F\J
16E-\LL
16E-\J
8E-\J
=11
16F\LL
16E-\J
8F\J
16E-\LL
16E-\
16E-\
16E-\JJ
=12
16E-\LL
16BB-\J
8E-\J
4E-\
=13||
*M3/4
4BB-/
8BB-/L
8BB-/J
4BB-/
=14
16G\LL
16F\J
8G\J
16F\LL
16E-\J
8F\J
4E-\
=15
*M2/4
16E-\LL
16e-\J
8e-\J
4e-\
==:|!
*-
